svgs/sharp-solid/person-circle-question.svg

<svg xmlns="http://www.w3.org/2000/svg" viewBox="0 0 576 512"><!--! Font Awesome Pro 6.6.0 by @fontawesome - https://fontawesome.com License - https://fontawesome.com/license (Commercial License) Copyright 2024 Fonticons, Inc. --><path d="M112 48a48 48 0 1 1 96 0 48 48 0 1 1 -96 0zM91.4 128l17.5 0 102.2 0 17.5 0 9.4 14.8 66.4 104c-15.5 16.3-28 35.7-36.3 57l-2.3 1.4-33.8-53L232 480l0 32-64 0 0-32 0-128-16 0 0 128 0 32-64 0 0-32 0-227.8-33.8 53L.2 270.8 82 142.8 91.4 128zM432 224a144 144 0 1 1 0 288 144 144 0 1 1 0-288zm-22.4 56c-23 0-41.6 18.6-41.6 41.6l0 6.4 32 0 0-6.4c0-5.3 4.3-9.6 9.6-9.6l40.5 0c7.7 0 13.9 6.2 13.9 13.9c0 5.2-2.9 9.9-7.4 12.3l-32 16.8-8.6 4.5 0 9.7 0 6.8 0 16 32 0 0-13.1 23.5-12.3c15.1-7.9 24.5-23.6 24.5-40.6c0-25.4-20.6-45.9-45.9-45.9l-40.5 0zM448 416l-32 0 0 32 32 0 0-32z"/></svg>

<svg xmlns="http://www.w3.org/2000/svg" viewBox="0 0 576 512"><!--! Font Awesome Pro 6.4.0 by @fontawesome - https://fontawesome.com License - https://fontawesome.com/license (Commercial License) Copyright 2023 Fonticons, Inc. --><path d="M112 48a48 48 0 1 1 96 0 48 48 0 1 1 -96 0zM91.4 128h17.5H211.1h17.5l9.4 14.8 66.4 104c-15.5 16.3-28 35.7-36.3 57l-2.3 1.4-33.8-53V480v32H168V480 352H152V480v32H88V480 252.2l-33.8 53L.2 270.8 82 142.8 91.4 128zM432 224a144 144 0 1 1 0 288 144 144 0 1 1 0-288zm-22.4 56c-23 0-41.6 18.6-41.6 41.6V328l32 0v-6.4c0-5.3 4.3-9.6 9.6-9.6h40.5c7.7 0 13.9 6.2 13.9 13.9c0 5.2-2.9 9.9-7.4 12.3l-32 16.8-8.6 4.5v9.7V376v16h32V378.9l23.5-12.3c15.1-7.9 24.5-23.6 24.5-40.6c0-25.4-20.6-45.9-45.9-45.9H409.6zM448 416H416v32h32V416z"/></svg>
